client/public/assets/icons/custom/custom52.svg

<?xml version="1.0"?><svg xmlns="http://www.w3.org/2000/svg" width="100" height="100" viewBox="0 0 100 100"><g fill="#fff"><path d="m79.9 35.1c0.2-3.2 0-6.4-0.5-9.5-0.4-2.6-2.4-4.6-5-5-3.2-0.5-6.3-0.7-9.5-0.5-0.9 0-1.3 1.1-0.7 1.7l14 14c0.6 0.6 1.7 0.1 1.7-0.7z m-23.6-12.8c-0.5-0.5-1.3-0.7-1.9-0.5-7.5 2.1-14.7 6.1-20.6 12.1-5.8 5.8-9.7 12.7-11.9 20-0.2 0.7 0 1.5 0.5 2l21.8 21.8c0.5 0.5 1.3 0.7 2 0.5 7.3-2.2 14.2-6.1 20-11.9 5.9-5.9 10-13 12.1-20.6 0.2-0.7 0-1.4-0.5-1.9l-21.5-21.5z m-8.4 39.3c-1.2 1.2-3.1 1.2-4.2 0l-5.6-5.6c-1.2-1.2-1.2-3.1 0-4.2 1.2-1.2 3.1-1.2 4.2 0l5.6 5.6c1.2 1.1 1.2 3 0 4.2z m7-7c-1.2 1.2-3.1 1.2-4.2 0l-5.6-5.6c-1.2-1.2-1.2-3.1 0-4.2 1.2-1.2 3.1-1.2 4.2 0l5.6 5.6c1.2 1.1 1.2 3 0 4.2z m7-7.1c-1.2 1.2-3.1 1.2-4.2 0l-5.6-5.6c-1.2-1.2-1.2-3.1 0-4.2 1.2-1.2 3.1-1.2 4.2 0l5.6 5.6c1.2 1.2 1.2 3.1 0 4.2z m-41.8 16.8c-0.2 3.4-0.1 6.8 0.5 10.2 0.4 2.6 2.4 4.6 5 5 3.4 0.5 6.8 0.7 10.2 0.5 0.9-0.1 1.3-1.1 0.7-1.7l-14.7-14.7c-0.6-0.6-1.7-0.2-1.7 0.7z"></path></g></svg>

<?xml version="1.0" encoding="utf-8"?>
<!-- Generator: Adobe Illustrator 16.0.0, SVG Export Plug-In . SVG Version: 6.00 Build 0)  -->
<!DOCTYPE svg PUBLIC "-//W3C//DTD SVG 1.1//EN" "http://www.w3.org/Graphics/SVG/1.1/DTD/svg11.dtd">
<svg version="1.1" id="Layer_1" xmlns="http://www.w3.org/2000/svg" xmlns:xlink="http://www.w3.org/1999/xlink" x="0px" y="0px"
	 width="100px" height="100px" viewBox="0 0 100 100" enable-background="new 0 0 100 100" xml:space="preserve">
<g>
	<path fill="#FFFFFF" d="M79.9,35.1c0.199-3.2,0-6.4-0.5-9.5c-0.4-2.6-2.4-4.6-5-5c-3.2-0.5-6.301-0.7-9.5-0.5
		c-0.9,0-1.301,1.1-0.7,1.7l14,14C78.8,36.4,79.9,35.9,79.9,35.1z"/>
	<path fill="#FFFFFF" d="M56.3,22.3c-0.5-0.5-1.3-0.7-1.899-0.5c-7.5,2.1-14.7,6.1-20.601,12.1c-5.8,5.8-9.7,12.7-11.9,20
		c-0.2,0.699,0,1.5,0.5,2l21.8,21.8c0.5,0.5,1.3,0.7,2,0.5c7.3-2.2,14.2-6.101,20-11.9c5.899-5.899,10-13,12.1-20.6
		c0.2-0.7,0-1.4-0.5-1.9L56.3,22.3z M47.9,61.6c-1.2,1.2-3.1,1.2-4.2,0L38.1,56c-1.2-1.2-1.2-3.1,0-4.2c1.2-1.2,3.1-1.2,4.2,0
		l5.6,5.601C49.1,58.5,49.1,60.4,47.9,61.6z M54.9,54.6c-1.2,1.2-3.101,1.2-4.2,0L45.1,49c-1.2-1.2-1.2-3.1,0-4.2
		c1.2-1.2,3.1-1.2,4.2,0l5.601,5.6C56.1,51.5,56.1,53.4,54.9,54.6z M61.9,47.5c-1.2,1.2-3.101,1.2-4.2,0L52.1,41.9
		c-1.199-1.2-1.199-3.1,0-4.2c1.2-1.2,3.101-1.2,4.2,0l5.601,5.6C63.1,44.5,63.1,46.4,61.9,47.5z"/>
	<path fill="#FFFFFF" d="M20.1,64.3c-0.2,3.4-0.1,6.8,0.5,10.2c0.4,2.6,2.4,4.6,5,5C29,80,32.4,80.2,35.8,80
		c0.9-0.1,1.3-1.1,0.7-1.7L21.8,63.6C21.2,63,20.1,63.4,20.1,64.3z"/>
</g>
</svg>
